X:161 
T:Pinkeen*, The
B:CRE4.051 (gan ainm)
F:file ID: cre.4/161pink
S:BPC < Barrett < Collins
N:A pinkeen is a small fish, like a minnow.
B:CRE4.051: gan ainm
N:ABA structure in source.
L:1/8
M:12/8
Q:180
R:jig
K:D
A|d3 AFA d2c B2A|d2c d2e fgf e2A|
"5"d3 AFA d2c B2A|B2d c2e d3 d2:|
A|"9"d2e f2g a2b afd|g2e f2d ecA ABc|
"13"d2e f2g a2b afd|g2f e2c d3 d3|
"17"d2e f2g a2b afd|g2e f2d ecB ABc|
"21"d2e f2g a2b afd|g2f e2d e2d c2A ||
"25"d3 AFA d2c B2A|d2c d2e fgf e2A|
"29"d3 AFA d2c B2A|B2d c2e d3-d3-|d6|]

%%%


